X: 40682
T: Tora's Hornpipe
R: reel
M: 4/4
K: Gmajor
(3def|gDGB fGeG|dDGB dDGB|cDFA dFAd|fed^c edef|
gDGB fGeG|dDGB dDGB|cDFA f3e|d^c=cF G2:|
|:(3Bc^c|dgfg bgdB|ceag fdef|gdBd ecAG|FAd^c d^def|
gGBd fGeG|dDGB dDGB|cDFA f3e|d^c=cF G2:|

